packages/icons/src/components/Logo/assets/light/mistral.svg

<svg width="20" height="20" viewBox="0 0 20 20" fill="none" xmlns="http://www.w3.org/2000/svg">
<g>
<path d="M7.47199 11.4011H4.78154L4.7828 8.71204H7.47332L7.47199 11.4011Z" fill="black"/>
<path d="M10.1614 14.09H7.471L7.47226 11.4009H10.1628L10.1614 14.09Z" fill="black"/>
<path d="M10.163 11.4011H7.47258L7.47384 8.71204H10.1644L10.163 11.4011Z" fill="black"/>
<path d="M12.8531 11.4011H10.1627L10.1639 8.71204H12.8545L12.8531 11.4011Z" fill="black"/>
<path d="M7.47324 8.71167H4.78279L4.78406 6.02258H7.47457L7.47324 8.71167Z" fill="black"/>
<path d="M12.8541 8.71167H10.1637L10.1649 6.02258H12.8554L12.8541 8.71167Z" fill="black"/>
<path d="M4.78205 11.4011H2.0916L2.09286 8.71204H4.78338L4.78205 11.4011Z" fill="black"/>
<path d="M4.78302 8.71167H2.09258L2.09384 6.02258H4.78435L4.78302 8.71167Z" fill="black"/>
<path d="M4.78412 6.02258H2.09368L2.09494 3.3335H4.78545L4.78412 6.02258Z" fill="black"/>
<path d="M15.5462 6.02258H12.8558L12.8571 3.3335H15.5476L15.5462 6.02258Z" fill="black"/>
<path d="M4.7811 14.09H2.09065L2.09192 11.4009H4.78243L4.7811 14.09Z" fill="black"/>
<path d="M4.77963 16.7794H2.08919L2.09045 14.0903H4.78097L4.77963 16.7794Z" fill="black"/>
<path d="M15.5434 11.4011H12.8529L12.8542 8.71204H15.5447L15.5434 11.4011Z" fill="black"/>
<path d="M15.5443 8.71167H12.8539L12.8552 6.02258H15.5457L15.5443 8.71167Z" fill="black"/>
<path d="M15.5419 14.09H12.8515L12.8527 11.4009H15.5433L15.5419 14.09Z" fill="black"/>
<path d="M15.5408 16.7794H12.8504L12.8517 14.0903H15.5422L15.5408 16.7794Z" fill="black"/>
<path d="M8.59081 11.4009H5.90044L5.9017 8.71179H8.59222L8.59081 11.4009Z" fill="#FF7000"/>
<path d="M11.2803 14.0898H8.58989L8.59115 11.4008H11.2817L11.2803 14.0898Z" fill="#FF4900"/>
<path d="M11.2811 11.4009H8.59065L8.59192 8.71179H11.2824L11.2811 11.4009Z" fill="#FF7000"/>
<path d="M13.9715 11.4009H11.2811L11.2823 8.71179H13.9728L13.9715 11.4009Z" fill="#FF7000"/>
<path d="M8.59191 8.71154H5.90154L5.9028 6.02246H8.59332L8.59191 8.71154Z" fill="#FFA300"/>
<path d="M13.9732 8.71154H11.2828L11.2841 6.02246H13.9746L13.9732 8.71154Z" fill="#FFA300"/>
<path d="M5.90023 11.4009H3.20986L3.21112 8.71179H5.90163L5.90023 11.4009Z" fill="#FF7000"/>
<path d="M5.90151 8.71167H3.21114L3.2124 6.02258H5.90292L5.90151 8.71167Z" fill="#FFA300"/>
<path d="M5.90295 6.02246H3.21257L3.21383 3.33337H5.90435L5.90295 6.02246Z" fill="#FFCE00"/>
<path d="M16.6653 6.02246H13.9748L13.9761 3.33337H16.6666L16.6653 6.02246Z" fill="#FFCE00"/>
<path d="M5.89925 14.0898H3.20888L3.21014 11.4008H5.90066L5.89925 14.0898Z" fill="#FF4900"/>
<path d="M5.89797 16.7793H3.2076L3.20886 14.0902H5.89938L5.89797 16.7793Z" fill="#FF0107"/>
<path d="M16.6626 11.4009H13.9721L13.9734 8.71179H16.6639L16.6626 11.4009Z" fill="#FF7000"/>
<path d="M16.664 8.71167H13.9736L13.9748 6.02258H16.6653L16.664 8.71167Z" fill="#FFA300"/>
<path d="M16.6606 14.0898H13.9702L13.9715 11.4008H16.662L16.6606 14.0898Z" fill="#FF4900"/>
<path d="M16.6592 16.7793H13.9688L13.9701 14.0902H16.6606L16.6592 16.7793Z" fill="#FF0107"/>
</g>
</svg>

<svg xmlns="http://www.w3.org/2000/svg" width="20" height="20" fill="none" viewBox="0 0 20 20">
    <path fill="#000" d="M7.472 11.401h-2.69V8.712h2.691z"/>
    <path fill="#000" d="M10.161 14.09h-2.69l.001-2.69h2.69z"/>
    <path fill="#000" d="M10.163 11.401h-2.69V8.712h2.691z"/>
    <path fill="#000" d="M12.853 11.401h-2.69V8.712h2.691zm-5.38-2.689h-2.69l.001-2.69h2.69zm5.381 0h-2.69v-2.69h2.691zm-8.072 2.689h-2.69V8.712h2.691z"/>
    <path fill="#000" d="M4.783 8.712h-2.69v-2.69h2.691z"/>
    <path fill="#000" d="M4.784 6.023h-2.69v-2.69h2.691zm10.762 0h-2.69l.001-2.69h2.69zM4.781 14.09h-2.69V11.4h2.691zm-.001 2.69H2.09v-2.69h2.691zm10.763-5.379h-2.69l.001-2.689h2.69z"/>
    <path fill="#000" d="M15.544 8.712h-2.69l.001-2.69h2.69zm-.002 5.378h-2.69V11.4h2.691zm-.002 2.69h-2.69l.002-2.69h2.69z"/>
    <path fill="#ff7000" d="M8.59 11.4H5.9l.002-2.688h2.69z"/>
    <path fill="#ff4900" d="M11.28 14.09H8.59l.001-2.69h2.69z"/>
    <path fill="#ff7000" d="M11.281 11.4h-2.69V8.713h2.691zm2.691 0h-2.69V8.713h2.69z"/>
    <path fill="#ffa300" d="M8.592 8.712h-2.69v-2.69h2.691zm5.381 0h-2.69l.001-2.69h2.69z"/>
    <path fill="#ff7000" d="M5.9 11.4H3.21l.001-2.688h2.69z"/>
    <path fill="#ffa300" d="M5.902 8.712h-2.69v-2.69h2.69z"/>
    <path fill="#ffce00" d="M5.903 6.022h-2.69V3.333h2.691zm10.762 0h-2.69l.001-2.689h2.69z"/>
    <path fill="#ff4900" d="M5.9 14.09H3.208l.001-2.69H5.9z"/>
    <path fill="#ff0107" d="M5.898 16.78h-2.69v-2.69H5.9z"/>
    <path fill="#ff7000" d="M16.663 11.4h-2.69V8.713h2.69z"/>
    <path fill="#ffa300" d="M16.664 8.712h-2.69v-2.69h2.691z"/>
    <path fill="#ff4900" d="M16.66 14.09h-2.69l.002-2.69h2.69z"/>
    <path fill="#ff0107" d="M16.66 16.78h-2.691l.001-2.69h2.69z"/>
</svg>
